X: 2
T: My Love Is But a Lassie Yet
P: piffero primo b0077
O: safd 111
%R: march
F: http://ancients.sudburymuster.org/mus/sng/pdf/myloveisbutC0.pdf
Z: 2020 John Chambers <jc:trillian.mit.edu>
M: 2/4
L: 1/16
K: D
(dc |\
d2)D2 F2A2 | d2D2 D2(dc | d2)D2 F2A2 | B2E2 E2(dc |\
d2)D2 F2A2 | B2g2 f2e2  | dcBA  B2c2 | d2D2 D2 :|
|: (fg |\
a2)f2 g2e2 | f2d2 d2(fg | a2)f2 g2a2 | b2e2 e2fg |\
a2f2  g2e2 | f2d2 e2f2  | dcBA  B2c2 | d2D2 D2 :|


